X: 1
T:Acrobats Hornpipe
M:4/4
L:1/8
S:Kerr's Third collection of merry melodies for the violin
R:Hornpipe
N:Posted to uk.music.folk 27 August 1999
Z:Steve Mansfield
K:A
e2|a2ed cBAc|BAGB A2 AF|EFGA BcdB|cBAc B2e2|
a2ed cBAc|BAGB A2 AF|EFGA BcdB|cABGA2::e2|
aece ecfc|ecAc ecac|aece ecfc|EFGA Bcd^d|
aece ecfc|ecAc ecac|agfe dcBA|GABc d2:|

